src/symbolic/status/touchpad-disabled-symbolic.svg

<?xml version="1.0" encoding="UTF-8" standalone="no"?>
<svg
   xmlns:osb="http://www.openswatchbook.org/uri/2009/osb"
   xmlns:dc="http://purl.org/dc/elements/1.1/"
   xmlns:cc="http://creativecommons.org/ns#"
   xmlns:rdf="http://www.w3.org/1999/02/22-rdf-syntax-ns#"
   xmlns:svg="http://www.w3.org/2000/svg"
   xmlns="http://www.w3.org/2000/svg"
   xmlns:sodipodi="http://sodipodi.sourceforge.net/DTD/sodipodi-0.dtd"
   xmlns:inkscape="http://www.inkscape.org/namespaces/inkscape"
   width="16.000013"
   version="1.1"
   style="enable-background:new"
   id="svg7384"
   height="16.000002"
   inkscape:version="0.91 r"
   sodipodi:docname="touchpad-disabled-symbolic.svg">
  <sodipodi:namedview
     pagecolor="#ffffff"
     bordercolor="#666666"
     borderopacity="1"
     objecttolerance="10"
     gridtolerance="10"
     guidetolerance="10"
     inkscape:pageopacity="0"
     inkscape:pageshadow="2"
     inkscape:window-width="739"
     inkscape:window-height="480"
     id="namedview22"
     showgrid="false"
     showguides="true"
     inkscape:zoom="14.749998"
     inkscape:cx="8.0000067"
     inkscape:cy="8.000001"
     inkscape:window-x="0"
     inkscape:window-y="27"
     inkscape:window-maximized="0"
     inkscape:current-layer="svg7384">
    <sodipodi:guide
       position="3.5254241,11.728815"
       orientation="0,1"
       id="guide4150" />
    <sodipodi:guide
       position="12.000001,11.728815"
       orientation="0,1"
       id="guide4152" />
  </sodipodi:namedview>
  <metadata
     id="metadata90">
    <rdf:RDF>
      <cc:Work
         rdf:about="">
        <dc:format>image/svg+xml</dc:format>
        <dc:type
           rdf:resource="http://purl.org/dc/dcmitype/StillImage" />
        <dc:title>Moka Symbolic Icon Theme</dc:title>
      </cc:Work>
    </rdf:RDF>
  </metadata>
  <title
     id="title8473">Moka Symbolic Icon Theme</title>
  <defs
     id="defs7386">
    <linearGradient
       osb:paint="solid"
       id="linearGradient5606">
      <stop
         style="stop-color:#000000;stop-opacity:1;"
         offset="0"
         id="stop5608" />
    </linearGradient>
    <filter
       style="color-interpolation-filters:sRGB"
       id="filter7554">
      <feBlend
         mode="darken"
         in2="BackgroundImage"
         id="feBlend7556" />
    </filter>
  </defs>
  <path
     inkscape:connector-curvature="0"
     d="M 1.5,2 C 0,2 0,3.5 0,3.5 l 0,9 c 0,0 0,1.5 1.5,1.5 l 8.75,0 c 0.084,-0.15845 0.17984,-0.30484 0.3125,-0.4375 L 10.625,13.5 10.5625,13.4375 C 10.17137,13.04637 10,12.51826 10,12 l -2,0 0,-2 2,0 2,0 1,0 0,0.25 c 0.15845,0.084 0.30484,0.17984 0.4375,0.3125 L 13.5,10.625 13.5625,10.5625 C 13.95363,10.17137 14.48174,10 15,10 L 15,3.5 C 15,2 13.5,2 13.5,2 L 1.5,2 Z M 2,4 13,4 13,9 2,9 2,4 Z m 0,6 5,0 0,2 -5,0 0,-2 z"
     id="path23849-6-5"
     style="opacity:0.35;fill:#bebebe;fill-opacity:1;stroke:none" />
  <path
     inkscape:connector-curvature="0"
     d="m 10.99999,11 0,1 c 0,0.27614 0.10029,0.53779 0.28125,0.71875 L 12.06249,13.5 11.28124,14.28125 C 11.10028,14.46221 10.99999,14.72386 10.99999,15 l 0,1 1,0 c 0.27614,0 0.53779,-0.10029 0.71875,-0.28125 l 0.78125,-0.78125 0.78125,0.78125 C 14.4622,15.89971 14.72385,16 14.99999,16 l 1,0 0,-1 c 0,-0.27614 -0.10029,-0.53779 -0.28125,-0.71875 L 14.93749,13.5 15.71874,12.71875 C 15.8997,12.53779 15.99999,12.27614 15.99999,12 l 0,-1 -1,0 c -0.27614,0 -0.53779,0.10029 -0.71875,0.28125 L 13.49999,12.0625 12.71874,11.28125 C 12.53778,11.10029 12.27613,11 11.99999,11 l -1,0 z"
     id="path2987-7-9-8-5-1-5"
     style="display:inline;fill:#bebebe;fill-opacity:1;stroke:none;enable-background:new" />
</svg>

<svg xmlns="http://www.w3.org/2000/svg" width="16" height="16"><path d="M1.5 2C0 2 0 3.5 0 3.5v9S0 14 1.5 14h8.75c.084-.158.18-.305.313-.438l.062-.062-.063-.063c-.39-.39-.562-.919-.562-1.437H8v-2h5v.25c.158.084.305.18.438.313l.062.062.063-.063c.39-.39.919-.562 1.437-.562V3.5C15 2 13.5 2 13.5 2h-12zM2 4h11v5H2V4zm0 6h5v2H2v-2z" opacity=".35" fill="#5d656b"/><path d="M11 11v1c0 .276.1.538.281.719l.781.781-.78.781A1.015 1.015 0 0 0 11 15v1h1c.276 0 .538-.1.719-.281l.781-.781.781.78c.181.182.443.282.719.282h1v-1c0-.276-.1-.538-.281-.719l-.782-.781.782-.781c.18-.181.281-.443.281-.719v-1h-1c-.276 0-.538.1-.719.281l-.781.781-.781-.78A1.015 1.015 0 0 0 12 11h-1z" fill="#5d656b"/></svg>
